**harmony	**harte	**kern	**silbe	**rhyme	**timestamp	**phrase	**leadinstrument
*M4/4	*M4/4	*ICvox	*	*	*	*	*
*	*	*VRlead	*	*	*	*	*
*	*	*Hstimme	*	*	*	*	*
*A-:	*A-:	*A-:	*	*	*	*	*
*	*	*M4/4	*	*	*	*	*
*	*	*clefC3	*	*	*	*	*
1r;	N	1r;	.	.	0	.	r
=1	=1	=1	=1	=1	=1	=1	=1
*>Letter>A	*>Letter>A	*>Letter>A	*>Letter>A	*>Letter>A	*>Letter>A	*>Letter>A	*>Letter>A
*>Label>Intro	*>Label>Intro	*>Label>Intro	*>Label>Intro	*>Label>Intro	*>Label>Intro	*>Label>Intro	*>Label>Intro
1A-m	A-:5	1r	.	.	4.39	newline	strings
=2	=2	=2	=2	=2	=2	=2	=2
1A-m	A-:5	1r	.	.	7.93	.	strings
=3	=3	=3	=3	=3	=3	=3	=3
1A-m	A-:5	1r	.	.	11.47	.	strings
=4	=4	=4	=4	=4	=4	=4	=4
1A-m	A-:5	1r	.	.	15.01	.	strings
=5	=5	=5	=5	=5	=5	=5	=5
1A-m	A-:5	1r	.	.	18.551	newline	piano
=6	=6	=6	=6	=6	=6	=6	=6
1A-m	A-:5	1r	.	.	22.209	.	piano
=7	=7	=7	=7	=7	=7	=7	=7
1A-M	A-:min/b3	1r	.	.	25.868	newline	piano
=8	=8	=8	=8	=8	=8	=8	=8
1D-M	D-:sus2	1r	.	.	29.477	.	piano
=9	=9	=9	=9	=9	=9	=9	=9
2.F-M	F-:(3,7)	1r	.	.	33.086	.	piano
4A-m	A-:5/5	.	.	.	35.792	.	piano
=10	=10	=10	=10	=10	=10	=10	=10
1A-m	A-:5	1r	.	.	36.694	.	piano
=11	=11	=11	=11	=11	=11	=11	=11
1A-m	A-:min/b3	1r	.	.	40.303	newline	piano
=12	=12	=12	=12	=12	=12	=12	=12
2.D-M	D-:sus2	1r	.	.	44.163	.	piano
4A-m	A-:5/b7	.	.	.	47.057	.	piano
=13	=13	=13	=13	=13	=13	=13	=13
1F-m	F-:(3,7)	1r	.	.	48.022	.	piano
=14	=14	=14	=14	=14	=14	=14	=14
1A-m	A-:5/b7	1r	.	.	51.882	.	piano
=15	=15	=15	=15	=15	=15	=15	=15
1B-mm	B-:min7	1r	.	.	55.742	newline	guitar
=16	=16	=16	=16	=16	=16	=16	=16
1E-MM	E-:maj7	1r	.	.	59.3	.	guitar
=17	=17	=17	=17	=17	=17	=17	=17
1B-mm	B-:min7	1r	.	.	62.858	.	guitar
=18	=18	=18	=18	=18	=18	=18	=18
1G-M	G-:maj/b7	1r	.	.	66.416	.	guitar
=19	=19	=19	=19	=19	=19	=19	=19
1E-mm	E-:min7	1r	.	.	69.974	newline	guitar
=20	=20	=20	=20	=20	=20	=20	=20
1BMm	B:7(11)	1r	.	.	73.311	.	guitar
=21	=21	=21	=21	=21	=21	=21	=21
1EMM	E:maj7	1r	.	.	76.648	.	guitar
=22	=22	=22	=22	=22	=22	=22	=22
1EMM	E:maj7	1r	.	.	79.985	.	guitar
=23	=23	=23	=23	=23	=23	=23	=23
1GMm	G:7	1r	.	.	83.322	.	guitar
1r;	N	1r;	.	.	86.659	.	r
=24	=24	=24	=24	=24	=24	=24	=24
*>Letter>B	*>Letter>B	*>Letter>B	*>Letter>B	*>Letter>B	*>Letter>B	*>Letter>B	*>Letter>B
*>Label>Trans	*>Label>Trans	*>Label>Trans	*>Label>Trans	*>Label>Trans	*>Label>Trans	*>Label>Trans	*>Label>Trans
*C:	*C:	*C:	*	*	*C:	*C:	*C:
1CM	C:maj	1r	.	.	89.997	newline	guitar
=25	=25	=25	=25	=25	=25	=25	=25
1CM	C:maj	1r	.	.	91.886	.	guitar
=26	=26	=26	=26	=26	=26	=26	=26
*>Letter>C	*>Letter>C	*>Letter>C	*>Letter>C	*>Letter>C	*>Letter>C	*>Letter>C	*>Letter>C
*>Label>Verse	*>Label>Verse	*>Label>Verse	*>Label>Verse	*>Label>Verse	*>Label>Verse	*>Label>Verse	*>Label>Verse
1CM	C:maj	4e	Sun-	.	93.775	newline	voice
.	.	2.g	-rise	.	.	.	.
=27	=27	=27	=27	=27	=27	=27	=27
1Emm	E:min7	4r	.	.	95.667	.	voice
.	.	8g#q	_	.	.	.	.
.	.	4a	shine	.	.	.	.
.	.	8d#q	_	.	.	.	.
.	.	8e	down	.	.	.	.
.	.	8c	a	.	.	.	.
.	.	8d	lit-	.	.	.	.
.	.	8G	-tle	.	.	.	.
=28	=28	=28	=28	=28	=28	=28	=28
1FM	F:maj	4A	love	.	97.558	.	voice
.	.	8c	on	.	.	.	.
.	.	8A	the	.	.	.	.
.	.	4c	world	.	.	.	.
.	.	8c	to-	.	.	.	.
.	.	8A	-day	A	.	.	.
=29	=29	=29	=29	=29	=29	=29	=29
2Dmm	D:min7	4.G	_	.	99.45	.	voice
.	.	8r	.	.	.	.	.
2GMm	G:7	8r	.	.	100.396	.	voice
.	.	8G	M-	.	.	.	.
.	.	8d	-make	.	.	.	.
.	.	8c	a	.	.	.	.
=30	=30	=30	=30	=30	=30	=30	=30
.	.	8d#q	_	.	.	.	.
1CM	C:maj	4e	mor-	.	101.342	newline	voice
.	.	2.g	-ning	.	.	.	.
=31	=31	=31	=31	=31	=31	=31	=31
1Emm	E:min7	4r	.	.	103.233	.	voice
.	.	8g#q	_	.	.	.	.
.	.	4a	so	.	.	.	.
.	.	8d#q	_	.	.	.	.
.	.	8e	sweet	.	.	.	.
.	.	8c	that	.	.	.	.
.	.	8d	it-	.	.	.	.
.	.	8G	-'ll	.	.	.	.
=32	=32	=32	=32	=32	=32	=32	=32
1FM	F:maj	8A	have	.	105.124	.	voice
.	.	8c	to	.	.	.	.
.	.	8c	chase	.	.	.	.
.	.	8A	my	.	.	.	.
.	.	8Bq	_	.	.	.	.
.	.	4c	blues	.	.	.	.
.	.	8c	a-	.	.	.	.
.	.	[8d	-way	A	.	.	.
=33	=33	=33	=33	=33	=33	=33	=33
2Bdm	B:hdim7	4d]	_	.	107.015	.	voice
.	.	4r	.	.	.	.	.
2EMm	E:7	4r	.	.	107.961	.	voice
.	.	8dq	_	.	.	.	.
.	.	8e-	Oh,	.	.	.	.
.	.	8d	the	.	.	.	.
=34	=34	=34	=34	=34	=34	=34	=34
1Am	A:min	8d	moon	.	108.907	newline	voice
.	.	8c	_	.	.	.	.
.	.	8c	and	.	.	.	.
.	.	8d#q	_	.	.	.	.
.	.	[8e	stars	.	.	.	.
.	.	8e]	_	.	.	.	.
.	.	8d	have	.	.	.	.
.	.	16e	_	.	.	.	.
.	.	16d	_	.	.	.	.
.	.	8c	_	.	.	.	.
=35	=35	=35	=35	=35	=35	=35	=35
2Gm	G:min	4c	gone	B	110.774	.	voice
.	.	4r	.	.	.	.	.
2CMm	C:7	8r	.	.	111.708	.	voice
.	.	8c	and	.	.	.	.
.	.	8e	I	.	.	.	.
.	.	8d	can	.	.	.	.
=36	=36	=36	=36	=36	=36	=36	=36
1FMM	F:maj7	4c	see	.	112.642	.	voice
.	.	8c	the	.	.	.	.
.	.	[8f	light	.	.	.	.
.	.	8f]	_	.	.	.	.
.	.	4a	of	.	.	.	.
.	.	[8cc	dawn	B	.	.	.
=37	=37	=37	=37	=37	=37	=37	=37
1DMm	D:7	2cc]	_	.	114.509	.	voice
.	.	8r	.	.	.	.	.
.	.	8c	L-	.	.	.	.
.	.	8c	-like	.	.	.	.
.	.	8c	a	.	.	.	.
=38	=38	=38	=38	=38	=38	=38	=38
2CM	C:maj/5	8e	gol-	.	116.376	newline	voice
.	.	4g	-den	.	.	.	.
.	.	8g	smile	.	.	.	.
2AMm	A:7	8a	_	.	117.338	.	voice
.	.	8r	.	.	.	.	.
.	.	8A	bright-	.	.	.	.
.	.	8A	-'ning	.	.	.	.
=39	=39	=39	=39	=39	=39	=39	=39
.	.	8dq	_	.	.	.	.
2Ddm	D:hdim7	4e	up	.	118.3	.	voice
.	.	8e	the	.	.	.	.
.	.	[8a-	brand	.	.	.	.
2GMm	G:7(b9)	8a-]	_	.	119.262	.	voice
.	.	4B	new	.	.	.	.
.	.	[8c	day	A	.	.	.
=40	=40	=40	=40	=40	=40	=40	=40
*>Letter>B	*>Letter>B	*>Letter>B	*>Letter>B	*>Letter>B	*>Letter>B	*>Letter>B	*>Letter>B
*>Label>Trans	*>Label>Trans	*>Label>Trans	*>Label>Trans	*>Label>Trans	*>Label>Trans	*>Label>Trans	*>Label>Trans
1CM	C:maj	4c]	_	.	120.224	newline	piano
.	.	4r	.	.	.	.	.
.	.	2r	.	.	.	.	.
=41	=41	=41	=41	=41	=41	=41	=41
2GM	G:maj/4	1r	.	.	122.069	.	piano
2FM	F:maj/5	.	.	.	122.991	.	piano
=42	=42	=42	=42	=42	=42	=42	=42
*>Letter>C	*>Letter>C	*>Letter>C	*>Letter>C	*>Letter>C	*>Letter>C	*>Letter>C	*>Letter>C
*>Label>Verse	*>Label>Verse	*>Label>Verse	*>Label>Verse	*>Label>Verse	*>Label>Verse	*>Label>Verse	*>Label>Verse
1CM	C:maj	4e	Sun-	.	123.914	newline	voice
.	.	2.g	-rise	.	.	.	.
=43	=43	=43	=43	=43	=43	=43	=43
1Emm	E:min7	4r	.	.	125.809	.	voice
.	.	8g#q	_	.	.	.	.
.	.	4a	come	.	.	.	.
.	.	8d#q	_	.	.	.	.
.	.	8e	wrap	.	.	.	.
.	.	8c	me	.	.	.	.
.	.	8d	in	.	.	.	.
.	.	8G	the	.	.	.	.
=44	=44	=44	=44	=44	=44	=44	=44
1FM	F:maj	4A	warmth	.	127.704	.	voice
.	.	8c	of	.	.	.	.
.	.	8A	your	.	.	.	.
.	.	4c	crim-	.	.	.	.
.	.	8c	-son	.	.	.	.
.	.	8A	sky	C	.	.	.
=45	=45	=45	=45	=45	=45	=45	=45
2Dmm	D:min7	4.G	_	.	129.599	.	voice
.	.	8r	.	.	.	.	.
2GMm	G:7	8r	.	.	130.547	.	voice
.	.	8G	I	.	.	.	.
.	.	8d	spent	.	.	.	.
.	.	8c	a	.	.	.	.
=46	=46	=46	=46	=46	=46	=46	=46
.	.	8d#q	_	.	.	.	.
1CM	C:maj	4e	long	.	131.494	newline	voice
.	.	[4g	time	C	.	.	.
.	.	8.g]	_	.	.	.	.
.	.	16f	_	.	.	.	.
.	.	4e	_	.	.	.	.
=47	=47	=47	=47	=47	=47	=47	=47
1Emm	E:min7	4r	.	.	133.372	.	voice
.	.	8g#q	_	.	.	.	.
.	.	8a	be-	.	.	.	.
.	.	8d#q	_	.	.	.	.
.	.	[8e	-lie	.	.	.	.
.	.	16e]	_	.	.	.	.
.	.	16d	_	.	.	.	.
.	.	8c	ving	.	.	.	.
.	.	8d	in	.	.	.	.
.	.	8G	a	.	.	.	.
=48	=48	=48	=48	=48	=48	=48	=48
1FM	F:maj	8A	dream	.	135.25	.	voice
.	.	8c	_	.	.	.	.
.	.	8c	that	.	.	.	.
.	.	8A	had	.	.	.	.
.	.	8Bq	_	.	.	.	.
.	.	4c	passed	.	.	.	.
.	.	8c	me	.	.	.	.
.	.	[8d	by	C	.	.	.
=49	=49	=49	=49	=49	=49	=49	=49
2Bdm	B:hdim7	4.d]	_	.	137.128	.	voice
.	.	8r	.	.	.	.	.
2EMm	E:7	4r	.	.	138.067	.	voice
.	.	8e	But	.	.	.	.
.	.	8d	the	.	.	.	.
=50	=50	=50	=50	=50	=50	=50	=50
1Am	A:min	8d	moon	.	139.006	newline	voice
.	.	8c	_	.	.	.	.
.	.	8c	and	.	.	.	.
.	.	8d#q	_	.	.	.	.
.	.	[8e	stars	.	.	.	.
.	.	8e]	_	.	.	.	.
.	.	8d	have	.	.	.	.
.	.	16e	_	.	.	.	.
.	.	16d	_	.	.	.	.
.	.	8c	_	.	.	.	.
=51	=51	=51	=51	=51	=51	=51	=51
2Gm	G:min	4c	gone	B	140.872	.	voice
.	.	4r	.	.	.	.	.
2CMm	C:7	8r	.	.	141.805	.	voice
.	.	8c	and	.	.	.	.
.	.	8e	I	.	.	.	.
.	.	8d	can	.	.	.	.
=52	=52	=52	=52	=52	=52	=52	=52
1FMM	F:maj7	4c	see	.	142.737	.	voice
.	.	8c	the	.	.	.	.
.	.	[8f	light	.	.	.	.
.	.	8f]	_	.	.	.	.
.	.	4a	of	.	.	.	.
.	.	[8cc	dawn	B	.	.	.
=53	=53	=53	=53	=53	=53	=53	=53
1DMm	D:7	2cc]	_	.	144.603	.	voice
.	.	8r	.	.	.	.	.
.	.	8c	L-	.	.	.	.
.	.	8c	-like	.	.	.	.
.	.	8c	a	.	.	.	.
=54	=54	=54	=54	=54	=54	=54	=54
2CM	C:maj/5	8e	gol-	.	146.469	newline	voice
.	.	4g	-den	.	.	.	.
.	.	8g	smile	.	.	.	.
2AMm	A:7	8a	_	.	147.413	.	voice
.	.	8r	.	.	.	.	.
.	.	8A	bright-	.	.	.	.
.	.	8A	-'ning	.	.	.	.
=55	=55	=55	=55	=55	=55	=55	=55
.	.	8dq	_	.	.	.	.
2Ddm	D:hdim7	4e	up	.	148.357	.	voice
.	.	8e	the	.	.	.	.
.	.	[8a-	mor	.	.	.	.
2GMm	G:7(b9)	8a-]	_	.	149.301	.	voice
.	.	4B	ning	.	.	.	.
.	.	[8c	sky	C	.	.	.
=56	=56	=56	=56	=56	=56	=56	=56
*>Letter>B2	*>Letter>B2	*>Letter>B2	*>Letter>B2	*>Letter>B2	*>Letter>B2	*>Letter>B2	*>Letter>B2
*>Label>Trans	*>Label>Trans	*>Label>Trans	*>Label>Trans	*>Label>Trans	*>Label>Trans	*>Label>Trans	*>Label>Trans
1CM	C:maj	4c]	_	.	150.245	newline	piano
.	.	4r	.	.	.	.	.
.	.	2r	.	.	.	.	.
=57	=57	=57	=57	=57	=57	=57	=57
*	*	*A-:	*	*	*	*	*
1A-M	A-:maj	1r	.	.	152.095	.	piano
=58	=58	=58	=58	=58	=58	=58	=58
*>Letter>D	*>Letter>D	*>Letter>D	*>Letter>D	*>Letter>D	*>Letter>D	*>Letter>D	*>Letter>D
*>Label>Bridge	*>Label>Bridge	*>Label>Bridge	*>Label>Bridge	*>Label>Bridge	*>Label>Bridge	*>Label>Bridge	*>Label>Bridge
1B-m	B-:min	4r	.	.	153.945	newline	voice
.	.	8d-	From	.	.	.	.
.	.	8c	my	.	.	.	.
.	.	8d-	bed	.	.	.	.
.	.	8f	I	.	.	.	.
.	.	8b-q	_	.	.	.	.
.	.	8cc	can	.	.	.	.
.	.	[8b-	hear	.	.	.	.
=59	=59	=59	=59	=59	=59	=59	=59
1E-MM	E-:maj7	8b-]	_	.	155.874	.	voice
.	.	8fq	_	.	.	.	.
.	.	4g	the	.	.	.	.
.	.	[8f	world	.	.	.	.
.	.	8f]	_	.	.	.	.
.	.	8g	out-	.	.	.	.
.	.	4B-	-side	D	.	.	.
=60	=60	=60	=60	=60	=60	=60	=60
1B-mm	B-:min7	4r	.	.	157.804	.	voice
.	.	8d-	I	.	.	.	.
.	.	8c	get	.	.	.	.
.	.	8d-	up,	.	.	.	.
.	.	8f	throw	.	.	.	.
.	.	8b-q	_	.	.	.	.
.	.	8cc	my	.	.	.	.
.	.	[8b-	win	.	.	.	.
=61	=61	=61	=61	=61	=61	=61	=61
1E-M	E-:maj/b7	8b-]	_	.	159.733	.	voice
.	.	8fq	_	.	.	.	.
.	.	4g	dow	.	.	.	.
.	.	[8f	o	.	.	.	.
.	.	8f]	_	.	.	.	.
.	.	8g	pen	.	.	.	.
.	.	4e-	wide,	D	.	.	.
=62	=62	=62	=62	=62	=62	=62	=62
1Cm	C:min	4r	.	.	161.662	newline	voice
.	.	8e-	take	.	.	.	.
.	.	8d	a	.	.	.	.
.	.	8e-	breath	.	.	.	.
.	.	8f	of	.	.	.	.
.	.	4g	that	.	.	.	.
=63	=63	=63	=63	=63	=63	=63	=63
2Fm	F:min	4.a-	fresh	.	163.607	.	voice
.	.	8c	_	.	.	.	.
2Fm	F:min/b7	2c	air	.	164.579	.	voice
=64	=64	=64	=64	=64	=64	=64	=64
2D-M	D-:maj	4r	.	.	165.552	.	voice
.	.	8d-	take	.	.	.	.
.	.	8e-	a	.	.	.	.
2D-M	D-:maj/b7	8f	breath	.	166.524	.	voice
.	.	8g	of	.	.	.	.
.	.	4a-	that	.	.	.	.
=65	=65	=65	=65	=65	=65	=65	=65
*	*	*C:	*	*	*	*	*
2G-M	G-:maj/3	4.a-	fresh	.	167.496	.	voice
.	.	8d	_	.	.	.	.
2AM	A:maj	2d	air,	.	168.469	.	voice
=66	=66	=66	=66	=66	=66	=66	=66
2GM	G:maj	[2.b	fresh	.	169.441	newline	voice
2GM	G:maj/b7	.	.	.	170.4	.	voice
.	.	4b]	_	.	.	.	.
=67	=67	=67	=67	=67	=67	=67	=67
2GM	G:maj/6	1g	air!	.	171.359	.	voice
2GM	G:maj/5	.	.	.	172.318	.	voice
=68	=68	=68	=68	=68	=68	=68	=68
1N	<N> X	1r	.	.	173.277	.	piano
=69	=69	=69	=69	=69	=69	=69	=69
*M3/4	*M3/4	*M3/4	*	*	*M3/4	*M3/4	*M3/4
2.N	<N> X	2.r	.	.	175.196	.	piano
=70	=70	=70	=70	=70	=70	=70	=70
*>Letter>C	*>Letter>C	*>Letter>C	*>Letter>C	*>Letter>C	*>Letter>C	*>Letter>C	*>Letter>C
*>Label>Verse	*>Label>Verse	*>Label>Verse	*>Label>Verse	*>Label>Verse	*>Label>Verse	*>Label>Verse	*>Label>Verse
*M4/4	*M4/4	*	*	*	*M4/4	*M4/4	*M4/4
1CM	C:maj	4e	Sun-	.	176.634	newline	voice
.	.	2.g	-rise	.	.	.	.
=71	=71	=71	=71	=71	=71	=71	=71
1Emm	E:min7	4r	.	.	178.55	.	voice
.	.	8g#q	_	.	.	.	.
.	.	4a	shine	.	.	.	.
.	.	8d#q	_	.	.	.	.
.	.	8e	down	.	.	.	.
.	.	8c	a	.	.	.	.
.	.	8d	lit-	.	.	.	.
.	.	8G	-tle	.	.	.	.
=72	=72	=72	=72	=72	=72	=72	=72
1FM	F:maj	4A	love	.	180.466	.	voice
.	.	8c	on	.	.	.	.
.	.	8A	the	.	.	.	.
.	.	4c	world	.	.	.	.
.	.	8c	to-	.	.	.	.
.	.	8A	-day	A	.	.	.
=73	=73	=73	=73	=73	=73	=73	=73
2Dmm	D:min7	4.G	_	.	182.381	.	voice
.	.	8r	.	.	.	.	.
2GMm	G:7	8r	.	.	183.339	.	voice
.	.	8G	M-	.	.	.	.
.	.	8d	-make	.	.	.	.
.	.	8c	a	.	.	.	.
=74	=74	=74	=74	=74	=74	=74	=74
.	.	8d#q	_	.	.	.	.
1CM	C:maj	4e	mor-	.	184.297	newline	voice
.	.	2.g	-ning	.	.	.	.
=75	=75	=75	=75	=75	=75	=75	=75
1Emm	E:min7	4r	.	.	186.188	.	voice
.	.	8g#q	_	.	.	.	.
.	.	4a	so	.	.	.	.
.	.	8d#q	_	.	.	.	.
.	.	8e	sweet	.	.	.	.
.	.	8c	that	.	.	.	.
.	.	8d	it-	.	.	.	.
.	.	8G	-'ll	.	.	.	.
=76	=76	=76	=76	=76	=76	=76	=76
1FM	F:maj	8A	have	.	188.078	.	voice
.	.	8c	to	.	.	.	.
.	.	8c	chase	.	.	.	.
.	.	8A	my	.	.	.	.
.	.	8Bq	_	.	.	.	.
.	.	4c	blues	.	.	.	.
.	.	8c	a-	.	.	.	.
.	.	[8d	-way	A	.	.	.
=77	=77	=77	=77	=77	=77	=77	=77
2Bdm	B:hdim7	4d]	_	.	189.968	.	voice
.	.	4r	.	.	.	.	.
2EMm	E:7	4r	.	.	190.913	.	voice
.	.	8dq	_	.	.	.	.
.	.	8e-	Oh,	.	.	.	.
.	.	8d	the	.	.	.	.
=78	=78	=78	=78	=78	=78	=78	=78
1Am	A:min	8d	moon	.	191.859	newline	voice
.	.	8c	_	.	.	.	.
.	.	8c	and	.	.	.	.
.	.	8d#q	_	.	.	.	.
.	.	[8e	stars	.	.	.	.
.	.	8e]	_	.	.	.	.
.	.	8d	have	.	.	.	.
.	.	16e	_	.	.	.	.
.	.	16d	_	.	.	.	.
.	.	8c	_	.	.	.	.
=79	=79	=79	=79	=79	=79	=79	=79
2Gm	G:min	4c	gone	B	193.734	.	voice
.	.	4r	.	.	.	.	.
2CMm	C:7	8r	.	.	194.672	.	voice
.	.	8c	and	.	.	.	.
.	.	8e	I	.	.	.	.
.	.	8d	can	.	.	.	.
=80	=80	=80	=80	=80	=80	=80	=80
1FMM	F:maj7	4c	see	.	195.609	.	voice
.	.	8c	the	.	.	.	.
.	.	[8f	light	.	.	.	.
.	.	8f]	_	.	.	.	.
.	.	4a	of	.	.	.	.
.	.	[8cc	dawn	B	.	.	.
=81	=81	=81	=81	=81	=81	=81	=81
1DMm	D:7	2cc]	_	.	197.485	.	voice
.	.	8r	.	.	.	.	.
.	.	8c	L-	.	.	.	.
.	.	8c	-like	.	.	.	.
.	.	8c	a	.	.	.	.
=82	=82	=82	=82	=82	=82	=82	=82
2CM	C:maj/5	8e	gol-	.	199.36	newline	voice
.	.	4g	-den	.	.	.	.
.	.	8g	smile	.	.	.	.
2AMm	A:7	8a	_	.	200.3	.	voice
.	.	8r	.	.	.	.	.
.	.	8A	bright-	.	.	.	.
.	.	8A	-'ning	.	.	.	.
=83	=83	=83	=83	=83	=83	=83	=83
.	.	8dq	_	.	.	.	.
2Ddm	D:hdim7	4e	up	.	201.24	.	voice
.	.	8e	the	.	.	.	.
.	.	[8a-	brand	.	.	.	.
2GMm	G:7(b9)	8a-]	_	.	202.18	.	voice
.	.	4B	new	.	.	.	.
.	.	[8c	day	A	.	.	.
=84	=84	=84	=84	=84	=84	=84	=84
*>Letter>B2	*>Letter>B2	*>Letter>B2	*>Letter>B2	*>Letter>B2	*>Letter>B2	*>Letter>B2	*>Letter>B2
*>Label>Trans	*>Label>Trans	*>Label>Trans	*>Label>Trans	*>Label>Trans	*>Label>Trans	*>Label>Trans	*>Label>Trans
2A-M	A-:maj	2c]	_	.	203.12	newline	guitar
2A-M	A-:maj/b7	2r	.	.	204.059	.	guitar
=85	=85	=85	=85	=85	=85	=85	=85
2A-M	A-:maj/6	4r	.	.	204.997	.	guitar
.	.	8r	.	.	.	.	.
.	.	8cq	_	.	.	.	.
.	.	[8d	Brand	.	.	.	.
2A-M	A-:maj/5	8d]	_	.	205.936	.	guitar
.	.	4.e-	new	.	.	.	.
=86	=86	=86	=86	=86	=86	=86	=86
2A-M	A-:maj	[1a-	day	A	206.875	.	guitar
2A-M	A-:maj/b7	.	.	.	207.813	.	guitar
=87	=87	=87	=87	=87	=87	=87	=87
2A-M	A-:maj/6	2.a-]	_	.	208.752	.	guitar
2A-M	A-:maj/5	.	.	.	209.691	.	guitar
.	.	4r	.	.	.	.	.
=88	=88	=88	=88	=88	=88	=88	=88
*>Letter>D	*>Letter>D	*>Letter>D	*>Letter>D	*>Letter>D	*>Letter>D	*>Letter>D	*>Letter>D
*>Label>Outro	*>Label>Outro	*>Label>Outro	*>Label>Outro	*>Label>Outro	*>Label>Outro	*>Label>Outro	*>Label>Outro
1CM	C:maj	1r	.	.	210.63	newline	piano
=89	=89	=89	=89	=89	=89	=89	=89
1E-M	E-:maj	1r	.	.	212.399	.	piano
=90	=90	=90	=90	=90	=90	=90	=90
1B-M	B-:maj	1r	.	.	214.169	.	piano
=91	=91	=91	=91	=91	=91	=91	=91
1FM	F:maj	1r	.	.	215.939	.	piano
=92	=92	=92	=92	=92	=92	=92	=92
1CM	C:maj	1r	.	.	217.709	newline	piano
=93	=93	=93	=93	=93	=93	=93	=93
1E-M	E-:maj	1r	.	.	219.463	.	piano
=94	=94	=94	=94	=94	=94	=94	=94
1B-M	B-:maj	1r	.	.	221.216	.	piano
=95	=95	=95	=95	=95	=95	=95	=95
1FM	F:maj	1r	.	.	222.97	.	piano
=96	=96	=96	=96	=96	=96	=96	=96
1CM	C:maj	1r	.	.	224.723	newline	guitar
=97	=97	=97	=97	=97	=97	=97	=97
1E-M	E-:maj	1r	.	.	226.484	.	guitar
=98	=98	=98	=98	=98	=98	=98	=98
1B-M	B-:maj	1r	.	.	228.244	.	guitar
=99	=99	=99	=99	=99	=99	=99	=99
1FM	F:maj	1r	.	.	230.005	.	guitar
=100	=100	=100	=100	=100	=100	=100	=100
1CM	C:maj	1r	.	.	231.765	newline	guitar
=101	=101	=101	=101	=101	=101	=101	=101
1E-M	E-:maj	1r	.	.	233.511	.	guitar
=102	=102	=102	=102	=102	=102	=102	=102
1B-M	B-:maj	1r	.	.	235.257	.	guitar
=103	=103	=103	=103	=103	=103	=103	=103
1FM	F:maj	1r	.	.	237.003	.	guitar
=104	=104	=104	=104	=104	=104	=104	=104
1CM	C:maj	1r	.	.	238.749	newline	guitar
=105	=105	=105	=105	=105	=105	=105	=105
1E-M	E-:maj	1r	.	.	240.484	.	guitar
=106	=106	=106	=106	=106	=106	=106	=106
1B-M	B-:maj	1r	.	.	242.22	.	guitar
=107	=107	=107	=107	=107	=107	=107	=107
1FM	F:maj	1r	.	.	243.955	.	guitar
=108	=108	=108	=108	=108	=108	=108	=108
1CM	C:maj	1r	.	.	245.691	newline	guitar
=109	=109	=109	=109	=109	=109	=109	=109
1E-M	E-:maj	1r	.	.	247.433	.	guitar
=110	=110	=110	=110	=110	=110	=110	=110
1B-M	B-:maj	1r	.	.	249.176	.	guitar
=111	=111	=111	=111	=111	=111	=111	=111
1FM	F:maj	1r	.	.	250.918	.	guitar
=112	=112	=112	=112	=112	=112	=112	=112
1CM	C:maj	1r	.	.	252.66	newline	trumpet
=113	=113	=113	=113	=113	=113	=113	=113
1E-M	E-:maj	1r	.	.	254.436	.	trumpet
=114	=114	=114	=114	=114	=114	=114	=114
1B-M	B-:maj	1r	.	.	256.212	.	trumpet
=115	=115	=115	=115	=115	=115	=115	=115
1FM	F:maj	1r	.	.	257.988	.	trumpet
=116	=116	=116	=116	=116	=116	=116	=116
1CM	C:maj	1r	.	.	259.764	newline	guitar
=117	=117	=117	=117	=117	=117	=117	=117
1E-M	E-:maj	1r	.	.	261.479	.	guitar
=118	=118	=118	=118	=118	=118	=118	=118
1B-M	B-:maj	1r	.	.	263.194	.	guitar
=119	=119	=119	=119	=119	=119	=119	=119
1FM	F:maj	1r	.	.	264.909	.	guitar
=120	=120	=120	=120	=120	=120	=120	=120
1N	N	1r	.	.	266.624	newline	guitar
=121	=121	=121	=121	=121	=121	=121	=121
1E-M	E-:maj	1r	.	.	268.314	.	guitar
=122	=122	=122	=122	=122	=122	=122	=122
1B-M	B-:maj	1r	.	.	270.004	.	guitar
=123	=123	=123	=123	=123	=123	=123	=123
1FM	F:maj	1r	.	.	271.694	.	guitar
=124	=124	=124	=124	=124	=124	=124	=124
1CM	C:maj	1r	.	.	273.384	newline	guitar
=125	=125	=125	=125	=125	=125	=125	=125
1E-M	E-:maj	1r	.	.	275.08	.	guitar
=126	=126	=126	=126	=126	=126	=126	=126
1B-M	B-:maj	1r	.	.	276.775	.	guitar
=127	=127	=127	=127	=127	=127	=127	=127
1FM	F:maj	1r	.	.	278.471	.	guitar
=128	=128	=128	=128	=128	=128	=128	=128
1CM	C:maj	1r	.	.	280.166	newline	guitar
=129	=129	=129	=129	=129	=129	=129	=129
1E-M	E-:maj	1r	.	.	281.849	.	guitar
=130	=130	=130	=130	=130	=130	=130	=130
1B-M	B-:maj	1r	.	.	283.532	.	guitar
=131	=131	=131	=131	=131	=131	=131	=131
1FM	F:maj	1r	.	.	285.215	.	guitar
=132	=132	=132	=132	=132	=132	=132	=132
1CM	C:maj	1r	.	.	286.898	newline	guitar
=133	=133	=133	=133	=133	=133	=133	=133
1E-M	E-:maj	1r	.	.	288.605	.	guitar
=134	=134	=134	=134	=134	=134	=134	=134
1B-M	B-:maj	1r	.	.	290.311	.	guitar
=135	=135	=135	=135	=135	=135	=135	=135
1FM	F:maj	1r	.	.	292.018	.	guitar
=136	=136	=136	=136	=136	=136	=136	=136
*>Label>>Fadeout	*>Label>>Fadeout	*>Label>>Fadeout	*>Label>>Fadeout	*>Label>>Fadeout	*>Label>>Fadeout	*>Label>>Fadeout	*>Label>>Fadeout
1CM	C:maj	1r	.	.	293.724	newline	guitar
=137	=137	=137	=137	=137	=137	=137	=137
1E-M	E-:maj	1r	.	.	295.413	.	guitar
=138	=138	=138	=138	=138	=138	=138	=138
1B-M	B-:maj	1r	.	.	297.102	.	guitar
=139	=139	=139	=139	=139	=139	=139	=139
1FM	F:maj	1r	.	.	298.791	.	guitar
=140	=140	=140	=140	=140	=140	=140	=140
1CM	C:maj	1r	.	.	300.48	newline	guitar
=141	=141	=141	=141	=141	=141	=141	=141
1E-M	E-:maj	1r	.	.	302.159	.	guitar
=142	=142	=142	=142	=142	=142	=142	=142
1B-M	B-:maj	1r	.	.	303.837	.	guitar
=143	=143	=143	=143	=143	=143	=143	=143
1FM	F:maj	1r	.	.	305.516	.	guitar
=144	=144	=144	=144	=144	=144	=144	=144
1CM	C:maj	1r	.	.	307.194	newline	guitar
=145	=145	=145	=145	=145	=145	=145	=145
1E-M	E-:maj	1r	.	.	308.904	.	guitar
=146	=146	=146	=146	=146	=146	=146	=146
1B-M	B-:maj	1r	.	.	310.614	.	guitar
=147	=147	=147	=147	=147	=147	=147	=147
1FM	F:maj	1r	.	.	312.324	.	guitar
=148	=148	=148	=148	=148	=148	=148	=148
1CM	C:maj	1r	.	.	314.034	newline	guitar
=149	=149	=149	=149	=149	=149	=149	=149
1E-M	E-:maj	1r	.	.	315.431	.	guitar
=150	=150	=150	=150	=150	=150	=150	=150
1B-M	B-:maj	1r	.	.	316.829	.	guitar
=151	=151	=151	=151	=151	=151	=151	=151
1FM	F:maj	1r	.	.	318.226	.	guitar
1r;	N	r;	.	.	319.623	.	r
1r;	N	r;	.	.	321.149	.	r
*-	*-	*-	*-	*-	*-	*-	*-
!!!BillboardChartDate: 1976/08/28
!!!BillboardPeak: 34
!!!BillboardWeeksOnChart: 10
!!!COC: Eric Carmen
!!!ENC: Nathaniel Condit-Schultz
!!!EST: Awating manual error checking and editing.
!!!OTL: Sunrise
!!!RDF**harte: Chris Harte's syntax, used by MIREX
!!!RDF**harmony: **recip + pitch class of root + harmonic quality
!!!RDF**leadinstrument: original McGill primary instrumentation annotation
!!!RDF**phrase: newline = linebreak in original McGill transcription
!!!RDF**timestamp: McGill audio timestamp in seconds
!!!RDT: 2017/01/12/
!!!SampleActualRank: 66
!!!SampleID#: 0655
!!!SampleTargetRank: 67
!!!MBID: db8decae-4862-484f-b437-942856cc8173
